WordPressTheme/assets/images/common/sub-price-table-header-img-pc.svg

<svg width="64" height="64" viewBox="0 0 64 64" fill="none" xmlns="http://www.w3.org/2000/svg">
<path d="M57.2626 29.3118C57.2561 29.005 57.1719 28.7049 57.0179 28.4395C56.585 27.6852 55.6325 27.2052 54.1891 27.0127C53.3539 26.9012 52.5686 26.7648 51.855 26.607C49.6676 26.1201 47.4261 25.9202 45.1871 26.0126C43.3034 26.0834 41.4247 26.2538 39.5589 26.5231C39.1636 26.5831 38.7045 26.6563 38.1955 26.7379C34.4157 27.3413 26.7258 28.5688 21.9493 27.6226C21.3004 26.3975 21.1886 25.3029 21.6174 24.3661C22.5484 22.3315 25.7006 21.3782 26.8419 21.094C28.1929 23.158 29.9101 24.4282 31.9502 24.8717C35.7449 25.6963 39.24 23.347 39.387 23.2468C39.4993 23.1701 39.584 23.0594 39.6287 22.931C39.6735 22.8026 39.676 22.6632 39.6359 22.5333C39.5957 22.4034 39.515 22.2897 39.4056 22.209C39.2962 22.1282 39.1639 22.0846 39.0279 22.0845C38.6831 22.0602 38.3504 21.9469 38.0624 21.7556C37.4271 21.3696 36.9075 20.8196 36.5582 20.1634C35.2579 17.7675 33.3808 16.8743 32.3026 16.5472C34.4971 11.2911 31.6438 7.8556 31.5152 7.70557L31.4977 7.68675C30.8095 6.94548 31.1965 5.60167 31.2001 5.59037C31.2362 5.47208 31.237 5.34585 31.2025 5.22709C31.168 5.10833 31.0997 5.00219 31.0058 4.92163C30.912 4.84106 30.7968 4.78956 30.6742 4.7734C30.5516 4.75725 30.4269 4.77714 30.3154 4.83065C27.2848 6.28138 25.4802 8.98407 25.0958 12.6462C24.9592 14.0364 25.0082 15.4386 25.2417 16.8158C23.7798 16.7177 22.3122 16.7492 20.8558 16.9099C20.2802 16.9664 9.3524 18.1379 4.50233 26.7747C2.36774 30.576 2.16821 35.1397 3.96812 38.9826C5.43635 42.1178 7.86365 44.5304 11.1858 46.1666C10.2148 47.1946 9.41764 48.3738 8.82553 49.658C6.77019 54.1108 2.42553 53.4575 2.24294 53.4276C2.1083 53.4048 1.96992 53.4259 1.8482 53.4878C1.72648 53.5497 1.62787 53.649 1.56693 53.7712C1.506 53.8934 1.48595 54.032 1.50975 54.1664C1.53355 54.3009 1.59994 54.4241 1.69913 54.518C3.76445 56.4719 6.39917 57.6229 8.96143 57.4419C13.8232 57.0983 17.8027 52.8984 19.2869 51.091C19.8981 50.3367 20.5769 49.6398 21.3148 49.0089C21.3425 49.0117 21.3703 49.0126 21.3981 49.0117C24.4888 48.8147 28.4524 49.0287 28.4826 49.0306C28.5872 49.0379 28.6896 49.043 28.7939 49.0494C27.6099 49.8888 26.6314 50.9855 25.9318 52.2571C24.9091 54.0918 22.2889 57.923 18.2348 57.9503C18.9648 57.3989 19.5354 56.6638 19.8885 55.82C20.2416 54.9762 20.3645 54.0538 20.2448 53.1469C20.2369 53.0627 20.2124 52.981 20.1726 52.9064C20.1328 52.8318 20.0785 52.7659 20.013 52.7125C19.9475 52.6591 19.872 52.6193 19.7909 52.5954C19.7098 52.5715 19.6248 52.564 19.5408 52.5733C19.4567 52.5826 19.3754 52.6085 19.3015 52.6496C19.2276 52.6906 19.1627 52.746 19.1104 52.8124C19.0581 52.8788 19.0196 52.955 18.997 53.0365C18.9745 53.1179 18.9684 53.2031 18.9791 53.2869C19.0993 54.2371 18.8768 55.1991 18.3516 56C17.7829 56.8128 16.9504 57.4036 15.9954 57.6721C15.8561 57.7016 15.7306 57.777 15.6392 57.8862C15.5478 57.9955 15.4956 58.1322 15.491 58.2746C15.4864 58.4169 15.5297 58.5567 15.614 58.6716C15.6982 58.7865 15.8185 58.8698 15.9557 58.9082C16.6961 59.1195 17.4619 59.2284 18.2318 59.2318C22.9349 59.2318 25.8956 54.9374 27.0443 52.8764C27.7127 51.6507 28.6819 50.6151 29.8606 49.8671C30.3069 49.592 30.7751 49.3541 31.2604 49.1557C31.2679 49.1525 31.2741 49.1478 31.2814 49.1444C31.4806 49.1469 31.6799 49.1497 31.8768 49.1497C44.7886 49.1497 52.5942 43.8119 55.4889 41.3671C56.1775 40.785 57.0498 40.4649 57.9516 40.4636H59.528C60.189 40.4725 60.8375 40.283 61.3897 39.9196C62.7935 38.9716 62.5987 37.4426 62.2527 36.6336C62.2768 35.6602 62.1221 31.0876 57.2626 29.3118ZM18.3028 50.2831C17.2272 51.5926 13.3695 55.8885 8.88143 56.1711C7.14666 56.2803 5.47758 55.779 3.90016 54.6791C5.72096 54.4636 8.43456 53.5441 9.98713 50.1803C10.0043 50.1412 11.7387 46.2496 14.4538 45.5708C14.6164 45.5287 14.7558 45.4241 14.8417 45.2797C14.9276 45.1354 14.9529 44.9629 14.9122 44.7999C14.8714 44.6369 14.768 44.4966 14.6243 44.4096C14.4806 44.3226 14.3084 44.2958 14.1451 44.3352C13.4562 44.5169 12.8084 44.8287 12.2367 45.2538C8.92849 43.7464 6.5332 41.4573 5.12143 38.4425C3.49508 34.9709 3.6788 30.8423 5.61273 27.3986C10.1577 19.3044 20.8786 18.1871 20.9863 18.1769C20.9891 18.1769 20.9916 18.1756 20.9944 18.1752C20.9972 18.1748 20.9998 18.1752 21.0025 18.1752C21.0296 18.172 23.7164 17.8541 25.9504 18.1735C26.0545 18.1883 26.1606 18.177 26.2593 18.1408C26.358 18.1046 26.4462 18.0446 26.516 17.966C26.5859 17.8875 26.6352 17.7929 26.6597 17.6907C26.6841 17.5884 26.6829 17.4818 26.6561 17.3801C26.3082 15.8602 26.2101 14.2938 26.3657 12.7424C26.665 9.97042 27.8249 7.90021 29.8188 6.57145C29.8178 7.29421 30.0778 7.99303 30.5511 8.53927C30.7339 8.76138 33.1999 11.9025 30.8259 16.7166C30.7802 16.8093 30.7577 16.9117 30.7604 17.015C30.7631 17.1183 30.7909 17.2195 30.8414 17.3096C30.892 17.3998 30.9637 17.4763 31.0504 17.5325C31.1372 17.5887 31.2363 17.623 31.3392 17.6323C31.3644 17.6346 33.8768 17.8947 35.4397 20.7717C35.8984 21.6293 36.5796 22.3475 37.4119 22.8506C37.4187 22.8544 37.4254 22.8585 37.4322 22.8627C36.2062 23.4227 34.2251 24.0674 32.2128 23.6261C30.4058 23.2308 28.8826 22.0261 27.6861 20.0444C27.619 19.9334 27.5196 19.8455 27.4011 19.7925C27.2827 19.7395 27.1509 19.724 27.0234 19.7479C26.814 19.7871 21.8761 20.7478 20.4611 23.8338C19.9905 24.8621 19.9619 25.9855 20.373 27.1862C19.7279 26.9634 19.1382 26.6045 18.6439 26.1338C18.2715 25.769 17.9889 25.3227 17.8183 24.8301C17.7926 24.7502 17.7514 24.6761 17.697 24.6122C17.6426 24.5483 17.5761 24.4958 17.5013 24.4577C17.4266 24.4195 17.345 24.3966 17.2613 24.3901C17.1777 24.3836 17.0935 24.3937 17.0138 24.4199C16.934 24.4461 16.8602 24.4877 16.7967 24.5425C16.7331 24.5973 16.6809 24.6641 16.6433 24.7391C16.6056 24.8141 16.5831 24.8958 16.5772 24.9795C16.5712 25.0632 16.5818 25.1473 16.6085 25.2269C16.8396 25.9063 17.2258 26.5226 17.7364 27.027C21.3671 30.7151 32.4451 28.9459 38.3967 27.9955C38.9018 27.9147 39.3567 27.842 39.75 27.7826C41.5706 27.5202 43.4038 27.3542 45.2419 27.2852C47.3702 27.1973 49.5008 27.3871 51.58 27.8499C52.3286 28.0154 53.1497 28.1585 54.0205 28.2746C55.3503 28.4519 55.7125 28.7778 55.9875 29.3041C55.6884 29.4002 55.3796 29.4634 55.0667 29.4923C54.5597 29.5417 54.0486 29.5299 53.5444 29.4569C50.2179 29.0393 46.8413 29.5757 43.8079 31.0035C41.6967 32.0323 39.8412 33.5185 38.3762 35.3541C36.9934 37.0528 33.1433 41.0091 27.2733 41.056C27.1063 41.0594 26.9474 41.1284 26.8307 41.2479C26.7141 41.3675 26.6491 41.5281 26.6497 41.6952C26.6504 41.8622 26.7167 42.0223 26.8343 42.1409C26.9519 42.2596 27.1114 42.3273 27.2784 42.3294H27.2837C33.6944 42.2784 37.8674 37.9966 39.3637 36.1581C40.7104 34.4686 42.4164 33.1002 44.358 32.1523C47.1667 30.8292 50.2938 30.3321 53.3744 30.719C53.9803 30.8055 54.5944 30.8187 55.2035 30.7584C55.6846 30.7163 56.1574 30.6061 56.6076 30.4312C59.7168 31.4723 60.6332 33.7818 60.8914 35.2915C59.7853 34.5433 58.4887 34.1264 57.1538 34.0899H57.1463C50.0758 33.4737 44.1804 38.8696 43.7251 39.2979C38.4626 43.5341 29.8898 44.6061 29.8044 44.6166C29.7919 44.6181 29.7791 44.6202 29.7667 44.6223L25.3272 45.4266C25.0885 45.4627 23.1636 45.811 20.5891 47.9533C19.7545 48.6552 18.9889 49.4354 18.3028 50.2831ZM54.6405 40.4171C52.9334 41.8292 51.0684 43.0386 49.0828 44.0212C49.6036 43.1843 50.0335 42.2942 50.3653 41.366C50.4234 41.2074 50.4161 41.0323 50.3451 40.8791C50.274 40.7259 50.145 40.6072 49.9865 40.5491C49.908 40.5204 49.8246 40.5074 49.741 40.5108C49.6575 40.5143 49.5754 40.5342 49.4996 40.5694C49.3464 40.6404 49.2277 40.7694 49.1696 40.928C47.8896 44.4229 46.1931 45.2979 46.1505 45.3189C46.1449 45.3216 46.1404 45.3255 46.1349 45.3282C44.9666 45.7808 43.7753 46.1717 42.5659 46.4994C43.336 45.5356 43.9179 44.4357 44.2813 43.2568C45.394 39.8466 46.5966 38.6908 46.7743 38.534C48.1541 37.5876 49.6437 36.8122 51.2105 36.2251C50.8236 36.7849 50.4907 37.3801 50.2162 38.0028C50.1795 38.0787 50.1587 38.1613 50.155 38.2455C50.1513 38.3297 50.1649 38.4138 50.1949 38.4926C50.2248 38.5713 50.2705 38.6432 50.3292 38.7037C50.3879 38.7642 50.4584 38.8121 50.5362 38.8444C50.6922 38.8916 50.8594 38.8858 51.0117 38.8279C51.164 38.77 51.2928 38.6633 51.378 38.5244C52.4468 36.1457 53.6161 35.5953 53.8038 35.5196C54.8788 35.3226 55.9752 35.2697 57.0642 35.3622C57.0874 35.3643 57.1126 35.3649 57.1361 35.3647H57.1532C56.7547 36.0077 56.4557 36.7072 56.2663 37.4396C55.9521 38.5405 55.3967 39.5576 54.6405 40.4171ZM36.1838 47.6642C36.578 47.2066 36.901 46.6922 37.1418 46.1383C37.1448 46.1312 37.148 46.1236 37.1508 46.1165C37.1572 46.1005 37.7707 44.5703 38.6379 43.6069C40.4841 42.8904 42.235 41.9491 43.851 40.8043C43.5568 41.4764 43.2964 42.1629 43.071 42.8611C41.9404 46.3271 39.9011 47.0882 39.6882 47.1591C38.5774 47.3701 37.4109 47.5427 36.1838 47.6647V47.6642ZM23.1862 47.6655C24.5804 46.8393 25.4877 46.691 25.5167 46.6867C25.5211 46.6867 25.525 46.6842 25.5293 46.6836C25.5337 46.6831 25.5399 46.6836 25.5453 46.6821L29.6075 45.9461C29.1992 46.6533 28.6411 47.2624 27.9723 47.7308C27.038 47.6913 25.1324 47.6271 23.1862 47.666V47.6655ZM29.7932 47.8277C30.3698 47.2103 30.8246 46.4894 31.1335 45.7031C32.9828 45.3807 34.8069 44.9278 36.5923 44.3478C36.3608 44.7652 36.1534 45.1954 35.9711 45.6365C35.3052 47.145 34.2341 47.6977 33.9382 47.8262C32.617 47.887 31.2361 47.8925 29.7929 47.8283L29.7932 47.8277ZM60.6772 38.8647C60.3355 39.0853 59.9356 39.1988 59.529 39.1906H57.9516C57.6001 39.1917 57.2497 39.2296 56.9061 39.3035C57.1507 38.8143 57.3476 38.3026 57.4941 37.7756C57.8518 36.4768 58.3536 35.8311 58.5724 35.5973C59.5291 35.8711 60.3943 36.3978 61.0768 37.122C61.1894 37.3852 61.5071 38.3045 60.6768 38.8653L60.6772 38.8647Z" fill="white"/>
<path d="M17.131 22.8518C17.2096 22.8803 17.2931 22.8931 17.3767 22.8893C17.4602 22.8856 17.5422 22.8654 17.6179 22.8299C17.6937 22.7944 17.7616 22.7443 17.818 22.6825C17.8743 22.6207 17.9179 22.5483 17.9463 22.4697C17.9827 22.3693 18.0219 22.2698 18.0639 22.1713C18.0967 22.0944 18.1139 22.0117 18.1147 21.9281C18.1155 21.8445 18.0998 21.7616 18.0686 21.684C18.0373 21.6065 17.9911 21.5359 17.9325 21.4762C17.8739 21.4165 17.8042 21.3689 17.7273 21.3362C17.6503 21.3035 17.5677 21.2862 17.4841 21.2854C17.4005 21.2846 17.3175 21.3003 17.24 21.3316C17.1624 21.3628 17.0918 21.4091 17.0321 21.4676C16.9725 21.5262 16.9249 21.5959 16.8922 21.6729C16.841 21.7931 16.793 21.9147 16.7489 22.0365C16.7205 22.1152 16.7078 22.1986 16.7116 22.2821C16.7154 22.3656 16.7356 22.4476 16.7711 22.5233C16.8066 22.599 16.8566 22.667 16.9184 22.7233C16.9802 22.7797 17.0524 22.8233 17.131 22.8518Z" fill="white"/>
<path d="M33.7624 35.4389C33.8959 35.4391 34.0259 35.397 34.134 35.3188L34.7432 34.8802C34.8778 34.7805 34.9677 34.6319 34.9935 34.4664C35.0192 34.3009 34.9788 34.132 34.8809 33.9961C34.783 33.8602 34.6355 33.7684 34.4704 33.7405C34.3053 33.7126 34.1358 33.7508 33.9987 33.847L33.3897 34.2855C33.2804 34.3643 33.1988 34.4757 33.1568 34.6037C33.1147 34.7317 33.1144 34.8698 33.1558 34.998C33.1973 35.1262 33.2783 35.238 33.3873 35.3172C33.4964 35.3965 33.6277 35.439 33.7624 35.4389Z" fill="white"/>
<path d="M22.9239 35.0003C23.2756 35.0003 23.5607 34.7152 23.5607 34.3635C23.5607 34.0118 23.2756 33.7267 22.9239 33.7267C22.5722 33.7267 22.2871 34.0118 22.2871 34.3635C22.2871 34.7152 22.5722 35.0003 22.9239 35.0003Z" fill="white"/>
<path d="M16.0623 39.8824C15.937 39.8948 15.8182 39.9441 15.7209 40.024C15.6236 40.1039 15.5521 40.2109 15.5156 40.3314C15.4791 40.452 15.4792 40.5806 15.5158 40.7011C15.5524 40.8216 15.6239 40.9286 15.7212 41.0084C15.8186 41.0883 15.9374 41.1375 16.0628 41.1498C16.1881 41.1621 16.3143 41.137 16.4253 41.0776C16.5364 41.0183 16.6273 40.9273 16.6867 40.8162C16.7461 40.7052 16.7712 40.579 16.7588 40.4537C16.7506 40.3704 16.7261 40.2896 16.6867 40.2158C16.6472 40.1421 16.5936 40.0768 16.5289 40.0237C16.4643 39.9707 16.3898 39.9309 16.3097 39.9066C16.2296 39.8824 16.1456 39.8741 16.0623 39.8824Z" fill="white"/>
<path d="M12.787 32.5219C12.6616 32.5343 12.5428 32.5836 12.4455 32.6635C12.3482 32.7435 12.2768 32.8505 12.2402 32.971C12.2037 33.0915 12.2038 33.2202 12.2404 33.3407C12.277 33.4612 12.3485 33.5681 12.4458 33.648C12.5432 33.7278 12.6621 33.777 12.7874 33.7894C12.9127 33.8017 13.0389 33.7766 13.1499 33.7172C13.261 33.6578 13.352 33.5668 13.4113 33.4558C13.4707 33.3447 13.4958 33.2185 13.4834 33.0932C13.4753 33.0099 13.4507 32.9291 13.4113 32.8553C13.3719 32.7815 13.3183 32.7163 13.2536 32.6632C13.1889 32.6101 13.1144 32.5704 13.0343 32.5461C12.9543 32.5219 12.8702 32.5136 12.787 32.5219Z" fill="white"/>
</svg>

<svg width="64" height="64" fill="none" xmlns="http://www.w3.org/2000/svg"><path d="M57.263 29.312a1.815 1.815 0 00-.245-.873c-.433-.754-1.386-1.234-2.829-1.426a28.136 28.136 0 01-2.334-.406 25.794 25.794 0 00-6.668-.594c-1.884.07-3.762.24-5.628.51-.395.06-.854.133-1.363.215-3.78.603-11.47 1.83-16.247.885-.649-1.226-.76-2.32-.332-3.257.931-2.035 4.084-2.988 5.225-3.272 1.35 2.064 3.068 3.334 5.108 3.778 3.795.824 7.29-1.525 7.437-1.625a.635.635 0 00-.36-1.163 1.999 1.999 0 01-.965-.328 4.138 4.138 0 01-1.504-1.593c-1.3-2.396-3.177-3.289-4.255-3.616 2.194-5.256-.66-8.691-.788-8.841l-.017-.02c-.689-.74-.302-2.084-.298-2.096a.636.636 0 00-.885-.76c-3.03 1.451-4.835 4.154-5.22 7.816a15.737 15.737 0 00.147 4.17 24.83 24.83 0 00-4.386.094c-.576.056-11.504 1.228-16.354 9.865-2.134 3.801-2.334 8.365-.534 12.208 1.468 3.135 3.896 5.547 7.218 7.184a13.03 13.03 0 00-2.36 3.491c-2.056 4.453-6.4 3.8-6.583 3.77a.636.636 0 00-.544 1.09c2.065 1.954 4.7 3.105 7.262 2.924 4.862-.344 8.842-4.544 10.326-6.351a15.954 15.954 0 012.028-2.082.57.57 0 00.083.003c3.09-.197 7.054.017 7.085.019l.31.018a9.611 9.611 0 00-2.861 3.208c-1.023 1.835-3.643 5.666-7.697 5.693a5.172 5.172 0 002.01-4.803.637.637 0 10-1.266.14c.12.95-.102 1.912-.627 2.713a4.294 4.294 0 01-2.357 1.672.637.637 0 00-.04 1.236 8.43 8.43 0 002.277.324c4.703 0 7.664-4.295 8.812-6.356a8.232 8.232 0 012.817-3.009 9.567 9.567 0 011.4-.711c.007-.003.013-.008.02-.012.2.003.399.006.596.006 12.912 0 20.717-5.338 23.612-7.783a3.823 3.823 0 012.463-.903h1.576a3.316 3.316 0 001.862-.544c1.404-.948 1.209-2.477.863-3.286.024-.974-.13-5.546-4.99-7.322zm-38.96 20.971c-1.076 1.31-4.934 5.605-9.422 5.888-1.734.11-3.403-.392-4.98-1.492 1.82-.215 4.534-1.135 6.086-4.499.017-.039 1.752-3.93 4.467-4.61a.637.637 0 00-.309-1.235 5.586 5.586 0 00-1.908.919c-3.309-1.508-5.704-3.797-7.116-6.811-1.626-3.472-1.442-7.6.492-11.044 4.545-8.095 15.266-9.212 15.373-9.222l.008-.002h.009c.027-.003 2.713-.32 4.947-.002a.637.637 0 00.706-.793 14.362 14.362 0 01-.29-4.638c.299-2.772 1.459-4.842 3.453-6.17a2.999 2.999 0 00.732 1.967c.183.222 2.649 3.364.275 8.178a.637.637 0 00.513.915c.025.003 2.538.263 4.1 3.14a5.411 5.411 0 001.993 2.09c-1.226.56-3.207 1.205-5.22.764-1.806-.395-3.33-1.6-4.526-3.582a.637.637 0 00-.663-.296c-.209.04-5.147 1-6.562 4.086-.47 1.028-.5 2.151-.088 3.352a4.761 4.761 0 01-1.73-1.052 3.368 3.368 0 01-.825-1.304.637.637 0 10-1.21.397c.232.68.618 1.296 1.128 1.8 3.631 3.688 14.71 1.919 20.66.968.506-.08.96-.153 1.354-.212a52.233 52.233 0 015.492-.498 24.515 24.515 0 016.338.565c.749.165 1.57.308 2.44.425 1.33.177 1.692.503 1.967 1.03a4.367 4.367 0 01-.92.187 6.336 6.336 0 01-1.523-.035 17.689 17.689 0 00-9.736 1.546 15.811 15.811 0 00-5.432 4.351c-1.383 1.699-5.233 5.655-11.103 5.702a.637.637 0 00.005 1.273h.006c6.41-.05 10.583-4.332 12.08-6.17a14.55 14.55 0 014.994-4.007 16.37 16.37 0 019.016-1.433c.606.086 1.22.1 1.83.04a5.107 5.107 0 001.404-.328c3.109 1.041 4.025 3.35 4.283 4.86a7.013 7.013 0 00-3.737-1.201h-.008c-7.07-.616-12.966 4.78-13.42 5.208-5.263 4.236-13.836 5.308-13.922 5.319a.797.797 0 00-.037.005l-4.44.805c-.239.036-2.163.384-4.738 2.526-.834.702-1.6 1.482-2.286 2.33zm36.338-9.866a28.668 28.668 0 01-5.558 3.604c.52-.837.95-1.727 1.282-2.655a.637.637 0 10-1.195-.438c-1.28 3.495-2.977 4.37-3.02 4.39a.065.065 0 01-.015.01c-1.168.453-2.36.844-3.57 1.171a9.836 9.836 0 001.716-3.242c1.113-3.41 2.316-4.566 2.493-4.723a20.659 20.659 0 014.437-2.309c-.387.56-.72 1.155-.995 1.778a.62.62 0 00.32.841.737.737 0 00.842-.32c1.069-2.378 2.238-2.929 2.426-3.004a12.308 12.308 0 013.26-.158.748.748 0 00.072.003h.017a7.506 7.506 0 00-.887 2.075 7.712 7.712 0 01-1.625 2.977zm-18.457 7.247a6.008 6.008 0 00.967-1.547c.006-.017.62-1.547 1.487-2.51a24.106 24.106 0 005.213-2.803 21.933 21.933 0 00-.78 2.057c-1.13 3.466-3.17 4.227-3.383 4.298-1.11.211-2.277.384-3.504.506zm-12.998.002c1.394-.827 2.302-.975 2.33-.98l.013-.002c.005 0 .01 0 .016-.002l4.063-.736a5.593 5.593 0 01-1.636 1.785c-.934-.04-2.84-.104-4.786-.065zm6.607.162a6.705 6.705 0 001.34-2.125 39.782 39.782 0 005.46-1.355c-.232.417-.44.847-.622 1.288-.666 1.509-1.737 2.062-2.033 2.19a45.796 45.796 0 01-4.145.002zm30.884-8.963c-.341.22-.741.334-1.148.326h-1.577a5.047 5.047 0 00-1.046.112c.245-.489.442-1 .588-1.527.358-1.3.86-1.945 1.078-2.179.957.274 1.822.8 2.505 1.525.112.263.43 1.182-.4 1.743z" fill="#fff"/><path d="M17.131 22.852a.636.636 0 00.815-.382c.037-.1.076-.2.118-.299a.635.635 0 10-1.172-.498c-.051.12-.099.242-.143.364a.638.638 0 00.382.815zm16.631 12.587a.632.632 0 00.372-.12l.61-.439a.637.637 0 00-.745-1.033l-.61.438a.637.637 0 00.373 1.154zM22.924 35a.637.637 0 100-1.273.637.637 0 000 1.273zm-6.862 4.882a.637.637 0 10.248.025c-.08-.025-.164-.033-.248-.025zm-3.275-7.36a.637.637 0 10.125 1.267.637.637 0 00-.125-1.267z" fill="#fff"/></svg>
